src/svg/triangleUp.svg

<?xml version="1.0" encoding="UTF-8" standalone="no"?>
<svg width="20px" height="20px" viewBox="0 0 20 20" version="1.1" xmlns="http://www.w3.org/2000/svg" xmlns:xlink="http://www.w3.org/1999/xlink" xmlns:sketch="http://www.bohemiancoding.com/sketch/ns">
    <!-- Generator: Sketch 3.4.4 (17249) - http://www.bohemiancoding.com/sketch -->
    <title>triangleUp</title>
    <desc>Created with Sketch.</desc>
    <defs>
        <path id="path-1" d="M14.154,10.286 L6.766,17.905 C6.017,18.673 5.795,19.833 6.199,20.838 L6.199,20.838 C6.602,21.843 7.557,22.5 8.612,22.5 L8.612,22.5 L23.387,22.5 C24.446,22.5 25.397,21.843 25.801,20.838 L25.801,20.838 C26.205,19.833 25.982,18.673 25.237,17.905 L25.237,17.905 L17.85,10.286 C17.355,9.78 16.7,9.5 16,9.5 L16,9.5 C15.304,9.5 14.648,9.78 14.154,10.286 L14.154,10.286 Z"></path>
    </defs>
    <g id="Page-1" stroke="none" stroke-width="1" fill="none" fill-rule="evenodd" sketch:type="MSPage">
        <g id="triangleUp" sketch:type="MSArtboardGroup" transform="translate(-6.000000, -6.000000)">
            <mask id="mask-2" sketch:name="triangleUp" fill="white">
                <use xlink:href="#path-1"></use>
            </mask>
            <use fill="#3A434C" sketch:type="MSShapeGroup" xlink:href="#path-1"></use>
        </g>
    </g>
</svg>

<?xml version="1.0" encoding="utf-8"?>
<svg version="1.1" xmlns="http://www.w3.org/2000/svg" xmlns:xlink="http://www.w3.org/1999/xlink" x="0px" y="0px" viewBox="0 0 20 20" style="enable-background:new 0 0 20 20;" xml:space="preserve">
	<g id="triangleUp" fill="#3A434C" transform="translate(-6.000000, -6.000000)">
		<path d="M14.2,10.3l-7.4,7.6c-0.7,0.8-1,1.9-0.6,2.9l0,0c0.4,1,1.4,1.7,2.4,1.7l0,0h14.8
			c1.1,0,2-0.7,2.4-1.7l0,0c0.4-1,0.2-2.2-0.6-2.9l0,0l-7.4-7.6c-0.5-0.5-1.1-0.8-1.9-0.8l0,0C15.3,9.5,14.6,9.8,14.2,10.3
			L14.2,10.3z"/>
	</g>
</svg>
